#Filename   	cursor.M
#Composer	average(Koko kara Saki 34 Syosetsu Me)
#Memo	license:CC BY 4.0 https://creativecommons.org/licenses/by/4.0/deed.ja
#Tempo 68
;TimerB 192

; NM AG FB
@010 0 0
; AR DR SR RR SL TL KS ML DT AMS
 31 20 0 15 15 15 0 8 0 0
 31 18 0 15 15 0 0 2 0 0
 31 21 0 15 15 0 0 1 0 0
 31 18 0 15 15 18 0 2 0 0

A  l%3 v16@010
A  r
A  @010  v16o4e e 
