#Filename   	damagedboss.M
#Composer	average(Koko kara Saki 34 Syosetsu Me)
#Memo	license:CC BY 4.0 https://creativecommons.org/licenses/by/4.0/deed.ja
#Tempo 68
;TimerB 192

; NM AG FB
@020 4 0
; AR DR SR RR SL TL KS ML DT AMS
 31 16 31 15 1 0 0 0 0 0
 31 13 0 15 15 21 0 0 0 0
 31 13 0 15 15 0 0 0 0 0
 31 13 0 15 15 21 0 0 0 0

A  l%6 v16@020
A  r 
A  o1l%3 v16 [efg]2
