#Filename   	enemyclear.M
#Composer	average(Koko kara Saki 34 Syosetsu Me)
#Memo	license:CC BY 4.0 https://creativecommons.org/licenses/by/4.0/deed.ja
#Tempo 68
;TimerB 192

; NM AG FB
@009 5 7
; AR DR SR RR SL TL KS ML DT AMS
 31 0 0 15 0 0 0 15 0 0
 31 14 0 15 15 13 0 15 0 0
 31 14 0 15 15 13 0 15 0 0
 31 14 0 15 15 13 0 15 0 0

A  l%3 v16@009
A  r
A  {o1eo3e}%96
;効果音全体で 1.776s = 16*0.111s = 32 * %3 = %96
;o1eからo3eまでで25音あるはずなので1音あたり%3というわけではなさそう。

