#Filename   	invincibleboss.M
#Composer	average(Koko kara Saki 34 Syosetsu Me)
#Memo	license:CC BY 4.0 https://creativecommons.org/licenses/by/4.0/deed.ja
#Tempo 68
;TimerB 192

; NM AG FB
@023 4 7
; AR DR SR RR SL TL KS ML DT AMS
 31 0 0 15 0 15 0 12 0 0
 31 13 14 15 2 24 0 13 0 0
 31 0 0 15 0 0 0 7 0 0
 31 13 14 15 2 24 0 8 0 0

A  l%6 v16@023
A  r 
A  o5l%3 v16 c%6r%1 c%6r%1 c%3r%1 c%3r%1
