#Filename   	teleport.M
#Composer	average(Koko kara Saki 34 Syosetsu Me)
#Memo	license:CC BY 4.0 https://creativecommons.org/licenses/by/4.0/deed.ja
#Tempo 68
;TimerB 192

; NM AG FB
@024 5 7
; AR DR SR RR SL TL KS ML DT AMS
 10 0 0 15 0 0 0 2 0 0
 10 7 0 15 15 13 0 15 0 0
 10 7 0 15 15 13 0 2 0 0
 10 7 0 15 15 13 0 15 0 0

A  l%6 v16@024
A  r 
A  o5l%3 v16 c1